X: 0
T: Ye Sons of Men, Oh, Hearken
Z: Tune: Aus meines Herzens Grunde
Z: Copyright © 2004 by Douglas D. Anderson
Z: Released To The Public Domain
L: 1/4
M: none
Q: 1/4=130
V: P1 name="Staff"
%%MIDI program 1 19
K: F
[V: P1]  F F2 c A2 F (E2 F) Gz | A c2 A2 G G F2 | F F2 c/ c/ A2 F (E2 F) Gz | A c2 A2 G G F2 | A A2 c c2 A G2 | F A2 G c2 G A2 Fz | A c2 B A2 F (E2 F) Gz | A c2 A2 G G F2|]
w: Ye sons of men, oh, heark-_ en: Your heart and mind pre- pare, To hail the al- migh ty Sav-_ ior, O sin- ners, be your care. He who of grace a- lone Our Life and Light was giv- en, The pro- mised Lord from hea-_ ven, Un- to our world is shown.

